!!!OTL: Panwang hongjun huihanli
!!!ARE: Asia, China,ÿGansu Minxian
!! I, 121
!!!SCT: C1816
!!!YEM: Copyright 1995, estate of Helmut Schaffrath.
**kern
*ICvox
*Ivox
!! Mixed meters:  2/4; 3/4; 4/4
*M4/4
*k[f#c#]
*D:
{24f#
24b
24f#
=1
1b
=2
*M3/4
8cc#
8b
8cc#
8b
8cc#
8b
=3
*M4/4
8b
8a
16f#
16a
16f#
16e
2e}
=4
{8a
8f#
8b
16b
16a
16f#
16a
16f#
16e
4d
=5
8f#
16e
16d
2.B
=6
*M2/4
4B
4r}
=7
*M3/4
{8a
8f#
4.e
8f#
=8
*M4/4
8a
8a
8b
16b
16a
16f#
16a
16f#
16e
4d
=9
8f#
8e
16e
16d
[8B
2B]
=10
4B
4r}
==
!!!AGN: Shange, Huar, Zhadaoling
!! Han Hui
!!!ONB: ESAC (Essen Associative Code) Database: SENGANSU
!!!AMT: irregular
!!!AIN: vox
!!!EED: Helmut Schaffrath
!!!EEV: 1.0
*-
